src/assets/icons/recipeIcon.svg

<svg width="43" height="40" viewBox="0 0 43 40" fill="none" xmlns="http://www.w3.org/2000/svg">
<path fill-rule="evenodd" clip-rule="evenodd" d="M21.3022 17.3109V14.6482V17.3109Z" fill="#8958A3"/>
<path d="M21.3022 17.3109V14.6482" stroke="#8958A3" stroke-width="1.33139" stroke-linecap="square"/>
<path fill-rule="evenodd" clip-rule="evenodd" d="M40.6073 35.9504C40.6073 25.2885 31.9641 16.6453 21.3022 16.6453C10.6403 16.6453 1.99707 25.2885 1.99707 35.9504H40.6073Z" fill="#41197F"/>
<path d="M21.3022 19.9737C15.0367 19.9737 9.6135 23.5804 6.99561 28.8309" stroke="white" stroke-width="1.33139" stroke-linecap="round"/>
<path d="M40.9402 35.9504H1.66423C0.745103 35.9504 0 36.6955 0 37.6146C0 38.5337 0.745103 39.2788 1.66423 39.2788H40.9402C41.8593 39.2788 42.6044 38.5337 42.6044 37.6146C42.6044 36.6955 41.8593 35.9504 40.9402 35.9504Z" fill="#8958A3"/>
<path fill-rule="evenodd" clip-rule="evenodd" d="M18.6395 13.3168H23.965V15.3139H18.6395V13.3168Z" fill="#41197F"/>
<path fill-rule="evenodd" clip-rule="evenodd" d="M30.3205 0C27.7159 0 25.6044 1.57238 25.6044 4.76379C25.6044 7.95521 32.7248 15.1321 33.927 15.1321C35.1292 15.1321 42.2496 7.95521 42.2496 4.76379C42.2496 1.57238 40.1381 0 37.5335 0C36.0867 0 34.7921 0.658024 33.927 1.69394C33.0619 0.658024 31.7673 0 30.3205 0Z" fill="#E44343"/>
<path d="M30.7189 2.27313C29.014 2.27313 27.3092 3.97798 28.4458 6.2511" stroke="white" stroke-width="1.51321" stroke-linecap="round"/>
</svg>

<svg width="43" height="40" fill="none" xmlns="http://www.w3.org/2000/svg"><path fill-rule="evenodd" clip-rule="evenodd" d="M21.302 17.31v-2.662 2.663z" fill="#8958A3"/><path d="M21.302 17.31v-2.662" stroke="#8958A3" stroke-width="1.331" stroke-linecap="square"/><path fill-rule="evenodd" clip-rule="evenodd" d="M40.607 35.95c0-10.662-8.643-19.305-19.305-19.305-10.662 0-19.305 8.643-19.305 19.305h38.61z" fill="#41197F"/><path d="M21.302 19.974c-6.265 0-11.688 3.606-14.306 8.857" stroke="#fff" stroke-width="1.331" stroke-linecap="round"/><path d="M40.94 35.95H1.664a1.664 1.664 0 1 0 0 3.329H40.94a1.664 1.664 0 0 0 0-3.329z" fill="#8958A3"/><path fill-rule="evenodd" clip-rule="evenodd" d="M18.64 13.317h5.325v1.997H18.64v-1.997z" fill="#41197F"/><path fill-rule="evenodd" clip-rule="evenodd" d="M30.32 0c-2.604 0-4.716 1.572-4.716 4.764 0 3.191 7.12 10.368 8.323 10.368 1.202 0 8.323-7.177 8.323-10.368C42.25 1.572 40.138 0 37.533 0a4.687 4.687 0 0 0-3.606 1.694A4.687 4.687 0 0 0 30.32 0z" fill="#E44343"/><path d="M30.719 2.273c-1.705 0-3.41 1.705-2.273 3.978" stroke="#fff" stroke-width="1.513" stroke-linecap="round"/></svg>
